!!!id: BC108
!!!page: 135
!!!COM:Anonymous
!!!LYR:Anonymous
!!!LAR:
!!!PTL@@FR: Les 100 plus belles chansons
!!!OTL@@FR:J'ai cueilli la belle rose
!!!PUB:La Bonne Chanson, inc.
!!!YEM: On ne peut reproduire, enregistrer ou diffuser en tout ou en partie le présent ouvrage, sous quelque procédé que ce soit, électronique, mécanique, photographique, sonore, magnétique ou autre, sans avoir obtenu au préalable l'autorisation écrite de l'éditrice.
!!!PDT: 2011
!!!SMA:2012 Bibliothèque nationale du Québec; Biblothèque nationale du Canada
!!!AGN-Laforte: laisse
!!!AGN-topic: amour
!!!AGN-metre: 7:1(7+7)
!!!AGN-rime: simple /ã/
**kern	**text	**text	**text	**text	**text	**text	**text
*clefG2	*	*	*	*	*	*	*
!!LO:TX:a:t=Moderato
*M3/4	*	*	*	*	*	*	*
*k[b-e-]	*	*	*	*	*	*	*
*B-:	*	*	*	*	*	*	*
*	*v:1	*v:2	*v:3	*v:4	*v:5	*v:6	*v:7
*	*pline:1H1	*pline:2H1	*pline:3H1	*pline:4H1	*pline:5H1	*pline:6H1	*pline:7H1
{8b-	J'ai	Je	Je	Je	Qui	–Com-	Ni
8a	cueil-	l'ai	l'ai	n'ai	me	-ment	mon
=1	=1	=1	=1	=1	=1	=1	=1
(8gL	-li	cueil-	por-	pas	dit	veux--	pè-
8fJ)	.	.	.	.	.	.	.
4b-	la	-li'	-té'	trou-	dans	tu	-re,
8cc	bel-	feuill[e]	chez	-vé	son	que	ni
8cc	-le	à	mon	per-	lan-	j'm'y	ma
=2	=2	=2	=2	=2	=2	=2	=2
(8ddL	ro-	feuil-	pè-	-son-	-gua-	ma-	mè-
8b-J)	.	.	.	.	.	.	.
8cc	-se,	-le,	-re,	-ne...	-ge:	-ri'?	-re,
*	*rp:o	*rp:o	*rp:o	*rp:o	*rp:o	*rp:o	*rp:o
*	*rf:x	*rf:x	*rf:x	*rf:x	*rf:x	*rf:x	*rf:ʁã
*	*rs:x	*rs:x	*rs:x	*rs:x	*rs:x	*rs:x	*rs:x
8r}	.	.	.	.	.	.	.
*	*pline:1H1r	*pline:2H1r	*pline:3H1r	*pline:4H1r	*pline:5H1r	*pline:6H1r	*pline:7H1r
{8dd	J'ai	Je	Je	Je	Qui	Com-	Ni
8b-	cueil-	l'ai	l'ai	n'ai	me	-ment	mon
!!LO:PB:g=original
=3	=3	=3	=3	=3	=3	=3	=3
(8gL	-li	cueil-	por-	pas	dit	veux--	pè-
8fJ)	.	.	.	.	.	.	.
4b-	la	-li'	-té'	trou-	dans	tu	-re,
8cc	bel-	feuill[e]	chez	-vé	son	que	ni
8cc	-le	à	mon	per-	lan-	j'm'y	ma
=4	=4	=4	=4	=4	=4	=4	=4
(8ddL	ro-	feuil-	pè-	-son-	-gua-	ma-	mè-
8b-J)	.	.	.	.	.	.	.
8cc	-se	-le,	-re,	-ne,	-ge:	-ri'?	-re,
*	*rp:o	*rp:o	*rp:o	*rp:o	*rp:o	*rp:o	*rp:o
*	*rf:x	*rf:x	*rf:x	*rf:x	*rf:x	*rf:x	*rf:x
*	*rs:x	*rs:x	*rs:x	*rs:x	*rs:x	*rs:x	*rs:x
8r}	.	.	.	.	.	.	.
*	*pline:1H2	*pline:2H2	*pline:3H2	*pline:4H2	*pline:5H2	*pline:6H2	*pline:7H2
{8b-	Qui	Mis	En-	Que	–Ma-	Mon	Ni
8cc	pen-	dans	-tre	le	-ri'--	pèr[e]	au-
=5||	=5	=5||	=5||	=5||	=5||	=5||	=5||
*M2/4	*	*	*	*	*	*	*
8cc	-dait	mon	Pa-	ros-	toi,	en	-cun
8dd	au	ta-	-ris	-si-	car	est	de
8b-	ro-	-bli-	et	-gnol	il	pas	mes
8dd	-sier	-er	Rou-	chan-	est	con-	pa-
!!LO:PB:g=original
=6	=6	=6	=6	=6	=6	=6	=6
8cc	blanc,	blanc,	-en,	-tant,	temps,	-tent,	-rents,
*	*rp:ã	*rp:ã	*rp:ã	*rp:ã	*rp:ã	*rp:ã	*rp:ã
*	*rf:blã	*rf:blã	*rf:ã	*rf:tã	*rf:tã	*rf:tã	*rf:ʁã
*	*rs:a1	*rs:a1	*rs:a0	*rs:a2	*rs:a2	*rs:a2	*rs:a3
8r}	.	.	.	.	.	.	.
*	*refrain	*refrain	*refrain	*refrain	*refrain	*refrain	*refrain
*	*italic	*italic	*italic	*italic	*italic	*italic	*italic
{8dd	La	La	La	La	La	La	La
16b-	bel-	bel-	bel-	bel-	bel-	bel-	bel-
16a	-le	-le	-le	-le	-le	-le	-le
=7||	=7	=7||	=7||	=7||	=7||	=7||	=7||
*M3/4	*	*	*	*	*	*	*
4g	ro-	ro-	ro-	ro-	ro-	ro-	ro-
8f	-se,	-se,	-se,	-se,	-se,	-se,	-se,
*	*Xitalic	*Xitalic	*Xitalic	*Xitalic	*Xitalic	*Xitalic	*Xitalic
*	*Xrefrain	*Xrefrain	*Xrefrain	*Xrefrain	*Xrefrain	*Xrefrain	*Xrefrain
8r}	.	.	.	.	.	.	.
*	*pline:1H2r	*pline:2H2r	*pline:3H2r	*pline:4H2r	*pline:5H2r	*pline:6H2r	*pline:7H2r
{8b-	Qui	Mis	En-	Que	Ma-	Mon	Ni
8cc	pen-	dans	-tre	le	-ri'--	pèr[e]	au-
=8||	=8	=8||	=8||	=8||	=8||	=8||	=8||
*M2/4	*	*	*	*	*	*	*
8cc	-dait	mon	Pa-	ros-	toi,	en	-cun
8dd	au	ta-	-ris	-si-	car	est	de
8b-	ro-	-bli-	et	-gnol	il	pas	mes
8dd	-sier	-er	Rou-	chan-	est	con-	pa-
!!LO:PB:g=original
=9	=9	=9	=9	=9	=9	=9	=9
!	!	!	!	!	!	!Fixed tyo	!
8cc	blanc,	blanc,	-en,	-tant,	temps,	-tent,	-rents,
*	*rp:ã	*rp:ã	*rp:ã	*rp:ã	*rp:ã	*rp:ã	*rp:ã
*	*rf:blã	*rf:blã	*rf:ã	*rf:tã	*rf:tã	*rf:tã	*rf:ʁã
*	*rs:a1	*rs:a1	*rs:a0	*rs:a2	*rs:a2	*rs:a2	*rs:a3
8r}	.	.	.	.	.	.	.
*>Refrain	*>Refrain	*>Refrain	*>Refrain	*>Refrain	*>Refrain	*>Refrain	*>Refrain
*	*pline:R1	*	*	*	*	*	*
*	*refrain	*	*	*	*	*	*
*	*italic	*	*	*	*	*	*
!!LO:TX:a:B:t=Refrain
{8dd	La	.	.	.	.	.	.
16b-	bel-	.	.	.	.	.	.
16a	-le	.	.	.	.	.	.
=10	=10	=10	=10	=10	=10	=10	=10
8.g	ros'	.	.	.	.	.	.
16f	du	.	.	.	.	.	.
8cc	ro-	.	.	.	.	.	.
8dd	-sier	.	.	.	.	.	.
=11||	=11	=11||	=11||	=11||	=11||	=11||	=11||
*M3/4	*	*	*	*	*	*	*
4b-	blanc.	.	.	.	.	.	.
*	*Xitalic	*	*	*	*	*	*
*	*Xrefrain	*	*	*	*	*	*
*	*rp:ã	*	*	*	*	*	*
*	*rf:blã	*	*	*	*	*	*
*	*rs:a1	*	*	*	*	*	*
4r}	.	.	.	.	.	.	.
==	==	==	==	==	==	==	==
*-	*-	*-	*-	*-	*-	*-	*-
!!!EED-1: Jack Etchegary
!!!EEV-1: 2026/02/03
!!!EED-2: Bethany Cheung
!!!EEV-2: 2026/02/03
!!!EED-3: Ève Poudrier
!!!EEV-3: 2026/04/17
